X: 36
M:2/4
L:1/16
K:G
v.G2(GA) BGGB | ABcd ecAB | .c2(ec) .B2(dB) | AcBA (GE).E2 |
g2{a}ge (fd).d.f | ebba beef | {a}gfge .d2(dB) | AcBA (GE).E2 |
{a}gfge fddf | efga beef | ((3gba) ((3gfe) .d2(dB) | AcBA (GE).E2 |]


